X: 20
T: Panie, za Twoją zawżdy pomocą król bije
C: Mikołaj Gomółka
%%abc-version 2.0
%%abcx-abcm2ps-target-version 5.9.1 (29 Sep 2008)
%%abc-creator hum2abc beta
%%abcx-conversion-date 2021/10/04 07:59:08
%%abc-edited-by Leszek Kubiak
%%abcx-initial-encoding-date data 2020=02-05
%%humdrum-veritas 2050341842
%%humdrum-veritas-data 2715648923
%%linebreak <none>
%%barnumbers 0
L: 1/4
M: C|
N: Derived from pl-wn--sd-xvi-qu-273--021_gomolka-mikolaj--panie-za-twoja-zawzdy-pomoca-krol-bije.krn
%%staves [1 2 3 4]
V: 1 clef=treble
V: 2
V: 3 clef=alto
V: 4
K: F
[V:1] F4c6 [|] 
[V:2] z4E4 [|] 
[V:3] z4C4 [|] 
[V:4] z4C,4 [|] 
[V:1] c2c2c2 [|] 
[V:2] F2A2G2A2 [|] 
[V:3] C2F2E2F2 [|] 
[V:4] F,2F,2C2F,2 [|] 
[V:1] B4A2A2 [|] 
[V:2] G2>F2E2F2 [|] 
[V:3] D4C2D2 [|] 
[V:4] G,4A,2D,2 [|] 
[V:1] B4A4 [|] 
[V:2] F4F3E [|] 
[V:3] D4C2C4 [|] 
[V:4] B,4F,4 [|] 
[V:1] G2G2G2c2 [|] 
[V:2] DCD2E2E2 [|] 
[V:3] B,2C2G,2 [|] 
[V:4] G,2G,2C,2C,2 [|] 
[V:1] A2d2B2e2 [|] 
[V:2] F2F2G2G2 [|] 
[V:3] A,2B,2B,2C2 [|] 
[V:4] F,2D,2_E,2C,2 [|] 
[V:1] d4c3B [|] 
[V:2] G4G2G2 [|] 
[V:3] D4E2C2 [|] 
[V:4] G,4C,2C,2 [|] 
[V:1] A2GAGFF4 [|] 
[V:2] F2EDC2D2 [|] 
[V:3] F,2G,2A,2B,A, [|] 
[V:4] D,2E,2F,2B,,2 [|] 
[V:1] E2F4 [|] 
[V:2] C2>B,2A,4 [|] 
[V:3] G,F,G,2F,4 [|] 
[V:4] C,4F,4 [|] 
[V:1] A4B3A [|] 
[V:2] F4F3E [|] 
[V:3] C4D3C [|] 
[V:4] F,4B,2F,2 [|] 
[V:1] G2F2G4 [|] 
[V:2] D2C2D4 [|] 
[V:3] =B,2C4=B,2 [|] 
[V:4] G,2A,2G,4 [|] 
[V:1] G2c2c2c2 [|] 
[V:2] E2G2G2A2 [|] 
[V:3] C2E2E2F2 [|] 
[V:4] C,2C2C2A,2 [|] 
[V:1] d2cBA2d2 [|] 
[V:2] G2G2A2A2 [|] 
[V:3] F2E2F2F2 [|] 
[V:4] B,2C2F,2D,2 [|] 
[V:1] f2f2d4 [|] 
[V:2] A2B2A3B [|] 
[V:3] D2>E2F4 [|] 
[V:4] D,2B,,2D,4 [|] 
[V:1] e2G2c3B [|] 
[V:2] c2>B2A2G2 [|] 
[V:3] GFED2<E2D [|] 
[V:4] C,4C,4 [|] 
[V:1] A2>G2F2BA [|] 
[V:2] F2C2F3E [|] 
[V:3] CB,A,2D3C [|] 
[V:4] F,2>E,2D,2B,,2 [|] 
[V:1] GFAB2<c2B [|] 
[V:2] DCD2EF2E [|] 
[V:3] B,A,G,F,G,4 [|] 
[V:4] D,4C,4 [|] 
[V:1] A32 [|] 
[V:2] F32 [|] 
[V:3] !fermata!F,32 [|] 
[V:4] F,32 [|] 


